images/Турбина.svg

<svg width="861" height="273" viewBox="0 0 861 273" fill="none" xmlns="http://www.w3.org/2000/svg">
<path d="M400.934 118.474C391.046 116.294 383.604 114.113 378.643 111.665C378.744 111.43 378.878 111.229 378.979 110.96C381.493 104.855 382.766 98.1133 382.766 90.7003C382.766 85.4005 381.861 80.5032 380.085 76.0085C378.308 71.5137 375.761 67.5892 372.442 64.2684C369.124 60.9477 365.135 58.3649 360.442 56.52C355.749 54.6751 350.486 53.7359 344.654 53.7359H304.765C300.273 42.2642 295.312 28.0756 289.714 10.7003C289.413 9.72755 287.938 10.1301 288.172 11.1028C299.435 61.8869 296.284 77.216 266.351 66.8848C261.96 65.3753 259.01 71.4131 262.932 73.9288C269.435 78.0881 254.183 80.6709 258.138 81.912C261.557 82.9854 264.809 84.629 267.189 87.2789C291.323 114.247 276.608 129.04 214.797 161.711C213.925 162.18 214.495 163.489 215.434 163.187C252.742 150.943 269.032 155.774 269.904 172.277L265.58 192.805H291.591L291.726 192.235C291.86 192.201 291.96 192.134 291.994 192C303.558 158.759 306.474 131.086 309.86 175.598C309.927 176.537 311.268 176.637 311.469 175.732C317.1 148.495 310.832 118.608 368.587 189.015C369.224 189.786 370.431 188.914 369.895 188.076C338.419 139.271 339.693 132.159 389.571 154.935C391.75 155.941 393.392 152.822 391.381 151.547C373.247 140.243 364.9 133.065 365.738 128.805C366.61 128.101 367.515 127.363 368.353 126.591C368.688 126.256 368.99 125.92 369.325 125.585C374.42 123.673 384.845 123.237 400.398 123.807C403.582 123.975 404.186 119.178 400.934 118.474ZM333.927 78.759C335.402 77.5514 336.441 75.7737 337.414 73.2915C341.335 79.0944 344.855 78.2894 355.347 73.1909C352.9 78.5913 352.095 82.5829 354.341 86.6416C354.408 86.8093 354.542 86.9435 354.609 87.1112C355.615 88.7548 357.157 90.3984 359.235 92.1762C339.592 101.166 337.212 99.9246 341.369 89.3921C333.19 97.0064 325.648 95.4298 316.195 78.759H333.927Z" fill="white"/>
<path d="M593.912 51.2201L542.995 139.405C534.38 107.405 539.878 93.9539 578.795 43.8407C544.503 79.1614 545.744 75.2369 581.61 15.7987C543.665 70.1048 542.425 68.696 572.794 5.33333C535.654 64.2013 526.436 54.6415 525.967 0C516.849 62.8931 515.877 80.1677 502.469 52.5283C506.089 101.501 499.486 175.463 474.982 215.849C479.541 209.04 483.53 203.338 486.983 198.608C489.664 194.918 493.955 192.771 498.547 192.771H510.581C511.05 196.964 511.385 202.13 511.754 208.101C513.028 202.6 514.168 197.535 515.24 192.771H542.526L576.147 132.629L562.738 192.771H589.421L619.589 51.2537H593.912V51.2201ZM518.726 177.04C527.106 139.673 529.319 133.166 541.989 141.182L521.274 177.04H518.726Z" fill="white"/>
<path d="M697.588 214.273C697.555 214.441 697.488 214.609 697.454 214.777C697.454 216.621 697.521 216.085 697.588 214.273Z" fill="white"/>
<path d="M827.212 142.927L825.335 65.8116C834.687 58.6334 846.386 50.1805 861 40.1176C847.123 48.2686 835.29 54.9101 825.167 60.1428L825 53.7025H781.893C786.016 41.8619 794.563 25.0233 806.597 3.25391C739.423 99.4216 731.244 183.581 708.316 181.937C706.506 180.361 706.405 175.095 707.545 167.011L716.361 125.585C724.573 92.1093 736.439 48.1344 745.155 5.53483C741.937 15.1952 738.987 23.9499 736.238 31.8325C731.646 44.9478 719.31 53.7361 705.433 53.7361L698.93 84.2937C690.952 82.952 681.299 76.0086 668.494 63.3965C688.572 88.3524 683.544 102.407 653.879 110.591H653.611L665.712 53.7361H639.499L610.102 192.872H636.113L648.214 135.648H678.65C689.578 149.803 676.103 193.946 636.784 218.6C678.315 201.929 688.103 174.893 684.081 210.55C697.221 175.128 697.79 206.524 697.589 214.306C709.858 169.057 716.361 193.04 743.076 272.034C737.847 241.208 734.897 217.392 735.769 200.252C735.97 196.126 739.322 192.872 743.411 192.872L754.138 167.749C761.747 165.77 772.004 166.809 785.379 170.801C780.921 167.849 777.166 165.3 774.15 163.053H802.005L802.407 192.872H828.419L827.279 145.744C836.195 145.443 846.05 145.107 857.079 144.671C845.782 144.134 835.894 143.564 827.212 142.927ZM808.91 116.562C808.675 124.109 811.86 132.327 818.061 135.514C813.737 137.392 808.005 139.036 801.636 140.512C766.809 135.916 773.479 128.906 808.91 116.562ZM821.145 73.6606C808.139 93.0485 808.407 97.0065 819.905 95.3294C806.765 101.837 806.195 102.977 817.458 102.139C812.296 103.95 809.58 109.216 809.011 115.12C763.021 124.713 803.547 103.648 803.547 103.648C803.547 103.648 772.272 110.357 810.854 77.4845C810.217 83.2539 812.564 81.1407 821.145 73.6606ZM814.273 58.6334C813.77 61.4845 813.268 64.0002 812.832 66.2476C793.122 75.4049 782.764 76.8137 779.949 70.7088C786.988 73.2581 794.865 67.0191 814.273 58.6334Z" fill="white"/>
<path d="M139.545 78.7589H159.187V55.5472C170.283 49.1405 185.534 42.1971 203.803 34.2138C139.276 59.6059 115.377 54.675 130.26 36.3941C102.471 56.6205 90.337 60.9476 37.0398 33.543C74.4149 59.7736 65.465 67.0189 0 80.2013C72.8059 73.1908 74.1802 75.8407 7.70965 94.8595C60.4034 84.2935 80.7502 80.9057 94.0242 88.3857L71.8338 192.906H98.0466L121.243 83.7233C129.153 84.9308 141.355 88.956 159.791 95.4969C147.489 89.5933 141.053 84.1593 139.545 78.7589Z" fill="white"/>
<path d="M285.961 53.7355H259.212C261.927 47.9997 265.044 41.5259 268.631 34.2471C234.072 85.9368 220.228 99.1863 208.563 76.9137C212.216 97.9116 213.993 109.383 212.853 120.117H211.278L196.194 53.7355H168.406L190.261 143.966H201.322C195.624 150.541 186.272 162.784 172.797 181.501C206.753 141.551 208.194 142.423 182.35 192.469C209.568 144.503 180.506 200.754 157.947 254.289C181.981 201.627 222.172 166.641 204.54 220.042C210.44 203.136 214.563 191.262 217.781 182.339L285.961 56.1506V53.7355Z" fill="white"/>
<path d="M498.715 137.056C473.474 123.639 473.608 117.802 496.603 105.358C469.183 112.469 467.574 111.362 486.815 97.3412C463.116 108.377 460.267 106.465 467.641 84.4271C454.367 97.576 444.613 96.5362 428.322 76.5781H497.743V51.5215H390.947V76.5781H401.07L377.941 192.838H430.032C437.976 192.838 445.183 191.63 451.686 189.249C458.189 186.867 463.72 183.48 468.379 179.119C473.005 174.758 476.591 169.526 479.105 163.421C481.619 157.316 482.893 150.574 482.893 143.161C482.893 140.511 482.659 137.962 482.223 135.513C486.379 135.48 491.81 136.05 498.715 137.056ZM462.446 166.675C458.692 163.018 455.474 160.234 452.524 158.121C451.619 159.463 450.58 160.704 449.272 161.844C444.781 165.802 439.149 167.815 432.378 167.815H408.143L415.752 131.857C416.59 131.656 417.361 131.454 418.132 131.253H423.093C421.283 127.999 418.97 124.444 416.255 120.352C435.998 131.89 445.082 132.528 458.356 119.815C451.015 134.775 452.591 137.828 469.15 138.431C452.289 141.651 452.021 142.658 468.681 146.415C452.624 145.878 455.373 147.79 474.781 163.32C453.764 151.446 451.552 151.513 462.446 166.675Z" fill="white"/>
</svg>

<svg width="861" height="273" fill="none" xmlns="http://www.w3.org/2000/svg"><path d="M400.93 118.47c-9.88-2.18-17.33-4.36-22.29-6.8.1-.24.24-.44.34-.71a52.68 52.68 0 003.79-20.26c0-5.3-.9-10.2-2.69-14.7a34.2 34.2 0 00-7.64-11.73 34.61 34.61 0 00-12-7.75 42.84 42.84 0 00-15.79-2.78h-39.88c-4.5-11.48-9.46-25.66-15.06-43.04-.3-.97-1.77-.57-1.54.4 11.26 50.79 8.11 66.12-21.82 55.78-4.39-1.5-7.34 4.53-3.42 7.05 6.5 4.16-8.75 6.74-4.8 7.98 3.43 1.08 6.68 2.72 9.06 5.37 24.13 26.97 9.42 41.76-52.4 74.43-.86.47-.3 1.78.64 1.48 37.31-12.25 53.6-7.42 54.47 9.09l-4.32 20.53h26.01l.14-.57c.13-.04.23-.1.26-.24 11.57-33.24 14.48-60.91 17.87-16.4.07.94 1.4 1.04 1.6.13 5.64-27.23-.63-57.12 57.13 13.28.63.78 1.84-.1 1.3-.93-31.47-48.8-30.2-55.92 19.68-33.15 2.18 1.01 3.82-2.1 1.81-3.38-18.13-11.3-26.48-18.49-25.64-22.75a53 53 0 002.61-2.2c.34-.34.64-.68.97-1.02 5.1-1.9 15.53-2.34 31.08-1.77 3.18.16 3.79-4.63.53-5.34zm-67-39.71c1.47-1.2 2.51-2.99 3.48-5.47 3.92 5.8 7.44 5 17.94-.1-2.45 5.4-3.25 9.4-1 13.45.06.17.2.3.26.47 1 1.64 2.55 3.29 4.63 5.07-19.65 8.99-22.03 7.74-17.87-2.79-8.18 7.62-15.72 6.04-25.18-10.63h17.74zM593.91 51.22L543 139.41c-8.62-32-3.12-45.46 35.8-95.57-34.3 35.32-33.06 31.4 2.81-28.04-37.95 54.3-39.19 52.9-8.82-10.47C535.65 64.2 526.44 54.64 525.97 0c-9.12 62.9-10.1 80.17-23.5 52.53 3.62 48.97-2.98 122.93-27.49 163.32 4.56-6.81 8.55-12.51 12-17.24a14.24 14.24 0 0111.57-5.84h12.03c.47 4.2.8 9.36 1.17 15.33 1.28-5.5 2.42-10.56 3.49-15.33h27.29l33.62-60.14-13.41 60.14h26.68L619.6 51.25H593.9v-.03zm-75.18 125.82c8.38-37.37 10.59-43.87 23.26-35.86l-20.72 35.86h-2.54zM697.59 214.27l-.14.5c0 1.85.07 1.31.14-.5z" fill="#fff"/><path d="M827.21 142.93l-1.88-77.12A867.07 867.07 0 01861 40.11a778.65 778.65 0 01-35.83 20.03L825 53.7h-43.1c4.12-11.84 12.66-28.68 24.7-50.45-67.18 96.17-75.36 180.33-98.28 178.69-1.81-1.58-1.92-6.84-.78-14.93l8.82-41.42c8.21-33.48 20.08-77.46 28.8-120.06-3.22 9.67-6.17 18.42-8.92 26.3a32.65 32.65 0 01-30.8 21.9l-6.51 30.56c-7.98-1.34-17.63-8.28-30.44-20.9 20.08 24.96 15.05 39.02-14.61 47.2h-.27l12.1-56.85H639.5l-29.4 139.13h26.01l12.1-57.22h30.44c10.93 14.15-2.55 58.3-41.87 82.95 41.54-16.67 51.32-43.7 47.3-8.05 13.14-35.42 13.71-4.03 13.5 3.76 12.28-45.25 18.78-21.27 45.5 57.72-5.23-30.82-8.18-54.64-7.31-71.78a7.7 7.7 0 017.64-7.38l10.73-25.12c7.6-1.98 17.86-.94 31.24 3.05a258 258 0 01-11.23-7.75h27.86l.4 29.82h26l-1.13-47.13c8.92-.3 18.77-.63 29.8-1.07-11.3-.54-21.19-1.1-29.87-1.74zm-18.3-26.37c-.24 7.55 2.95 15.77 9.15 18.95-4.32 1.88-10.05 3.53-16.42 5-34.83-4.6-28.16-11.6 7.27-23.95zm12.24-42.9c-13.01 19.39-12.74 23.35-1.25 21.67-13.13 6.5-13.7 7.65-2.44 6.8-5.16 1.82-7.88 7.09-8.45 12.99-45.99 9.6-5.46-11.47-5.46-11.47s-31.28 6.7 7.3-26.17c-.63 5.77 1.71 3.66 10.3-3.82zm-6.88-15.03c-.5 2.85-1 5.37-1.44 7.62-19.7 9.15-30.07 10.56-32.88 4.46 7.04 2.55 14.91-3.7 34.32-12.08zM139.54 78.76h19.65V55.55c11.1-6.4 26.34-13.35 44.61-21.34-64.52 25.4-88.42 20.46-73.54 2.18-27.79 20.23-39.92 24.56-93.22-2.85C74.41 59.77 65.47 67.02 0 80.2c72.8-7 74.18-4.36 7.71 14.66 52.7-10.57 73.04-13.95 86.31-6.47L71.83 192.9h26.22l23.2-109.19c7.9 1.21 20.1 5.24 38.54 11.78-12.3-5.9-18.74-11.34-20.25-16.74z" fill="#fff"/><path d="M285.96 53.74h-26.75c2.72-5.74 5.83-12.21 9.42-19.5-34.56 51.7-48.4 64.95-60.07 42.67 3.66 21 5.43 32.47 4.3 43.2h-1.58l-15.09-66.37h-27.78l21.85 90.23h11.06c-5.7 6.57-15.05 18.81-28.52 37.53 33.95-39.95 35.4-39.08 9.55 10.97 27.22-47.97-1.84 8.28-24.4 61.82 24.03-52.66 64.22-87.65 46.59-34.25 5.9-16.9 10.02-28.78 13.24-37.7l68.18-126.19v-2.41zM498.71 137.06c-25.24-13.42-25.1-19.26-2.1-31.7-27.43 7.1-29.04 6-9.8-8.02-23.7 11.04-26.54 9.13-19.17-12.91-13.27 13.15-23.03 12.1-39.32-7.85h69.42V51.52h-106.8v25.06h10.13l-23.13 116.26h52.1c7.94 0 15.14-1.21 21.65-3.6a48.46 48.46 0 0016.69-10.12 44.68 44.68 0 0010.73-15.7 52.69 52.69 0 003.11-27.9c4.16-.04 9.59.53 16.5 1.54zm-36.26 29.62a88.13 88.13 0 00-9.93-8.56 18.74 18.74 0 01-3.25 3.72c-4.49 3.96-10.12 5.97-16.9 5.97h-24.23l7.61-35.95c.84-.2 1.61-.4 2.38-.6h4.96a171 171 0 00-6.83-10.9c19.74 11.53 28.82 12.17 42.1-.55-7.35 14.97-5.77 18.02 10.79 18.62-16.86 3.22-17.13 4.23-.47 7.98-16.06-.53-13.3 1.38 6.1 16.91-21.02-11.87-23.23-11.8-12.33 3.36z" fill="#fff"/></svg>
